modules/hawcons-filled/icons/file-quicktime.svg

<?xml version="1.0" encoding="UTF-8" standalone="no"?>
<svg width="32px" height="32px" viewBox="0 0 32 32" version="1.1" xmlns="http://www.w3.org/2000/svg" xmlns:xlink="http://www.w3.org/1999/xlink" xmlns:sketch="http://www.bohemiancoding.com/sketch/ns">
    <!-- Generator: Sketch 3.0.3 (7891) - http://www.bohemiancoding.com/sketch -->
    <title>icon 53 file quicktime</title>
    <desc>Created with Sketch.</desc>
    <defs></defs>
    <g id="Page-1" stroke="none" stroke-width="1" fill="none" fill-rule="evenodd" sketch:type="MSPage">
        <g id="icon-53-file-quicktime" sketch:type="MSArtboardGroup" fill="#929292">
            <path d="M14.6756443,19.8827511 C14.463169,19.9587282 14.2340236,20 13.9951185,20 L13.0048815,20 C11.8938998,20 11,19.1019194 11,17.9940809 L11,15.0059191 C11,13.8865548 11.897616,13 13.0048815,13 L13.9951185,13 C15.1061002,13 16,13.8980806 16,15.0059191 L16,17.9940809 C16,18.4993595 15.8171018,18.9572008 15.5145823,19.3074755 L16.267767,20.0606602 L15.5606602,20.767767 L14.6756443,19.8827511 L14.6756443,19.8827511 L14.6756443,19.8827511 Z M13.7928932,19 L12.9989566,19 C12.4426603,19 12,18.5523709 12,18.0001925 L12,14.9998075 C12,14.4437166 12.4472481,14 12.9989566,14 L14.0010434,14 C14.5573397,14 15,14.4476291 15,14.9998075 L15,18.0001925 C15,18.2246463 14.9271364,18.4307925 14.8039499,18.5968431 L13.4393398,17.232233 L12.732233,17.9393398 L13.7928932,19 L13.7928932,19 L13.7928932,19 Z M8.00684834,10 C6.34621185,10 5,11.3422643 5,12.9987856 L5,20.0012144 C5,21.6573979 6.33599155,23 8.00684834,23 L24.9931517,23 C26.6537881,23 28,21.6577357 28,20.0012144 L28,12.9987856 C28,11.3426021 26.6640085,10 24.9931517,10 L8.00684834,10 L8.00684834,10 Z M19,14 L19,20 L20,20 L20,14 L22,14 L22,13 L17,13 L17,14 L19,14 L19,14 Z" id="file-quicktime" sketch:type="MSShapeGroup"></path>
        </g>
    </g>
</svg>

<svg width="32" height="32" viewBox="0 0 32 32" xmlns="http://www.w3.org/2000/svg"><path d="M14.676 19.883a2.017 2.017 0 0 1-.68.117h-.991A2.003 2.003 0 0 1 11 17.994v-2.988c0-1.12.898-2.006 2.005-2.006h.99c1.111 0 2.005.898 2.005 2.006v2.988c0 .505-.183.963-.485 1.313l.753.754-.707.707-.885-.885zM13.793 19h-.794A.996.996 0 0 1 12 18v-3c0-.556.447-1 .999-1h1.002c.556 0 .999.448.999 1v3c0 .225-.073.43-.196.597l-1.365-1.365-.707.707L13.792 19zm-5.786-9A3.003 3.003 0 0 0 5 12.999V20A2.996 2.996 0 0 0 8.007 23h16.986A3.003 3.003 0 0 0 28 20.001V13A2.996 2.996 0 0 0 24.993 10H8.007zM19 14v6h1v-6h2v-1h-5v1h2z" fill="#929292" fill-rule="evenodd"/></svg>
